dist/svg/action-based/run_32.svg

<svg xmlns="http://www.w3.org/2000/svg" viewBox="0 0 32 32"><path d="M11 11c-2.76 0-5 2.24-5 5s2.24 5 5 5 5-2.24 5-5-2.24-5-5-5zm0 7c-1.105 0-2-.896-2-2s.895-2 2-2c1.104 0 2 .896 2 2s-.896 2-2 2z"/><path d="M30.12 6.88C29.58 6.336 28.83 6 28 6H11C8.24 6 5.74 7.12 3.93 8.93 2.12 10.737 1 13.237 1 16s1.12 5.262 2.93 7.07C5.74 24.88 8.24 26 11 26c2.76 0 5.257-1.123 7.07-2.93.003 0 .004-.002.005-.004C21.085 20.068 30.12 11.12 30.12 11.12c.545-.54.88-1.29.88-2.12s-.335-1.58-.88-2.12zM16.66 21.65C15.14 23.168 13.13 24 11 24c-2.137 0-4.146-.832-5.657-2.343C3.833 20.147 3 18.137 3 16s.832-4.146 2.343-5.657C6.853 8.833 8.863 8 11 8c2.05 0 4.097.783 5.657 2.343 3.117 3.118 3.118 8.19.004 11.31zm4.222-4.19c.444-3.023-.485-6.207-2.81-8.534-.345-.343-.712-.645-1.09-.928h8.2c-.374 1.056-.148 2.276.697 3.12.245.247.527.43.823.572-1.555 1.54-3.78 3.744-5.82 5.77zM28 10c-.552 0-1-.448-1-1s.448-1 1-1 1 .448 1 1-.448 1-1 1z"/></svg>

<?xml version="1.0" encoding="utf-8"?>
<!-- Generator: Adobe Illustrator 17.1.0, SVG Export Plug-In . SVG Version: 6.00 Build 0)  -->
<!DOCTYPE svg PUBLIC "-//W3C//DTD SVG 1.1//EN" "http://www.w3.org/Graphics/SVG/1.1/DTD/svg11.dtd">
<svg version="1.1" id="Layer_1" xmlns="http://www.w3.org/2000/svg" xmlns:xlink="http://www.w3.org/1999/xlink" x="0px" y="0px"
	 width="32px" height="32px" viewBox="0 0 32 32" enable-background="new 0 0 32 32" xml:space="preserve">
<g>
	<g>
		<path d="M11,11c-2.761,0-5,2.239-5,5s2.239,5,5,5c2.761,0,5-2.239,5-5S13.761,11,11,11z M11,18c-1.105,0-2-0.896-2-2s0.895-2,2-2
			c1.104,0,2,0.896,2,2S12.104,18,11,18z"/>
	</g>
	<g>
		<path d="M30.121,6.879C29.578,6.337,28.828,6,28,6H11C8.239,6,5.739,7.119,3.929,8.929C2.119,10.738,1,13.238,1,16
			s1.119,5.262,2.929,7.071C5.739,24.881,8.239,26,11,26c2.761,0,5.257-1.123,7.071-2.929c0,0,0,0,0,0
			c0.002-0.002,0.003-0.003,0.004-0.005c3.011-2.998,12.045-11.945,12.045-11.945C30.665,10.579,31,9.829,31,9
			S30.665,7.421,30.121,6.879z M16.661,21.652l-0.001,0.001C15.14,23.167,13.13,24,11,24c-2.137,0-4.146-0.832-5.657-2.343
			C3.832,20.146,3,18.137,3,16s0.832-4.146,2.343-5.657C6.854,8.832,8.863,8,11,8c2.049,0,4.097,0.783,5.657,2.343
			C19.774,13.461,19.775,18.533,16.661,21.652z M20.882,17.461c0.444-3.022-0.485-6.206-2.811-8.533
			C17.727,8.585,17.36,8.283,16.982,8h8.2c-0.374,1.056-0.148,2.276,0.697,3.121c0.246,0.246,0.528,0.428,0.824,0.571
			C25.148,13.231,22.924,15.436,20.882,17.461z M28,10c-0.552,0-1-0.448-1-1s0.448-1,1-1c0.552,0,1,0.448,1,1S28.552,10,28,10z"/>
	</g>
</g>
</svg>
